X:1
T:Title
%%score ( 1 2 3 ) { ( 4 6 ) | ( 5 7 ) }
L:1/8
Q:1/4=100
M:4/4
K:Eb
V:1 treble nm="Choir Pad, Soprano"
V:2 treble 
V:3 treble 
V:4 bass nm="Choir Pad, The Shepherds"
V:6 bass 
V:5 bass 
V:7 bass 
V:1
 [EGB]2 [EGB]>B [EGB]2 [EGc]2 | c4 B4 | [DFAB]2 [DFAB]>B [DFAd]2 [DFAd]2 | c4 B4 | %4
w: By~Joseph~Lincoln~Hall * * * *||||
 [EGB]2 [EGB]>B [EGB]2 [E_Gc]2 | d4 F4 | [FBd]2 [FBd]>d [F=Ad]2 [EAc]2 | [DF]2 z2 z4 | %8
w: ||||
 [G,B,E]2 [G,B,D]2 [G,B,F]2 [G,B,E]2 | A4 z4 | [B,EG]2 [G,B,E]2 [=A,EF]2[K:bass] [A,CE]2 | %11
w: |||
 [B,D]6 [A,B,]2 | [G,B,E]2 [G,B,E]2[K:treble] [G,B,F]2 [G,B,E]2 | A4 z4 | [EB]2 [EB]2 [Ec]2 [Ec]2 | %15
w: ||||
 [DFB]6 [DFAB]2 | [EGB]2 [EGBc]2 [EGBd]2 [EGBe]2 | e2- [FABe]2 [FABd]2 [DFAB]2 | %18
w: |||
 [DFA]2 [DFAB]2 [DFAd]2 [DFAc]2 | [EGB]6 B2 | [GBe]2 [GBe]>[GBe] [GBe]4 | %21
w: |||
 [gbe']2 [gbe']>[gbe'] [gbe']4 | [E_G=Ae]2 [EGAe]>[EGAe] [EGAe]4 | %23
w: ||
 [e_g=ae']2 [egae']>[egae'] [ege']4 | [GBe]2 [GBe]2 [ABdf]2 [ABdf]2 | [GBe]6 [Beg]2 | %26
w: |||
 [cea]2 [Beg]2 [Acf]2 [GBe]2 | [FAd]2 [EAc]2 [DFB]2 =B,_B, | G6 z2 | E6 z2 |] %30
w: ||||
V:2
 x8 | [DFA]2 [DFA]2 [DFA]2 [DFA]2 | x8 | [EG]2 [EG]2 [EG]2 [EG]2 | x8 | [DFB]2 [DFB]2 D2 D2 | x8 | %7
 B2- [DFB-]2 [DFB]2 [A,B,]2 | x8 | [CE]2 [CE]2 [B,EG]2 [B,EG]2 | x6[K:bass] x2 | x8 | %12
 x4[K:treble] x4 | [CE]2 [CE]2 [B,EG]2 [B,EG]2 | x8 | x8 | x8 | [FAB]2 z2 z4 | x8 | x8 | x8 | x8 | %22
 x8 | x8 | x8 | x8 | x8 | z4 z2 [EA]2 | [B,E]2 [=A,CE]2 z2 F2 | [G,B,]2 [A,C]2 [G,B,]4 |] %30
V:3
 x8 | x8 | x8 | x8 | x8 | x8 | x8 | x8 | x8 | x8 | x6[K:bass] x2 | x8 | x4[K:treble] x4 | x8 | x8 | %15
 x8 | x8 | x8 | x8 | x8 | x8 | x8 | x8 | x8 | x8 | x8 | x8 | x8 | z4 [=A,B,D]4 | x8 |] %30
V:4
 E,2 B,,2 E,2 B,,2 | F,2 B,,2 F,2 B,,2 | F,2 B,,2 F,2 B,,2 | E,2 B,,2 E,2 B,,2 | E,2 B,,2 E,2 E,2 | %5
 B,,2 D,2 F,2 B,2 | F,2 F,2 F,2 F,2 | B,2 A,2 G,2 F,2 | E,2 B,,2 E,2 B,,2 | E,2 B,,2 E,2 B,,2 | %10
 E,2 E,2 F,2 F,2 | B,,2 C,2 D,2 B,,2 | E,2 B,,2 E,2 B,,2 | E,2 B,,2 E,2 B,,2 | B,2 B,2 =A,2 A,2 | %15
 A,2 A,2 G,2 F,2 | E,2 B,,2 E,2 B,,2 | F,2 B,,2 F,2 B,,2 | F,2 B,,2 F,2 B,,2 | E,2 B,,2 E,2 B,2 | %20
 B,2 B,>B, B,4 | B2 B>B B4 | =B,2 B,>B, B,4 | =B2 B>B B4 | B,2 B,2 B,,2 B,,2 | E,4 z4 | %26
 A,,2 G,,2 F,,2 G,,2 | B,,2 C,2 D,2 A,,2 | B,,6 D,2 | E,8 |] %30
V:5
 E,,2 B,,,2 E,,2 B,,,2 | F,,2 B,,,2 F,,2 B,,,2 | F,,2 B,,,2 F,,2 B,,,2 | E,,2 B,,,2 E,,2 B,,,2 | %4
 E,,2 B,,,2 E,,2 E,,2 | B,,,2 D,,2 F,,2 B,,2 | F,,2 F,,2 F,,2 F,,2 | B,,2 A,,2 G,,2 F,,2 | %8
 E,,2 G,,,2 E,,2 B,,,2 | E,,2 B,,,2 E,,2 B,,,2 | E,,2 E,,2 F,,2 F,,2 | B,,,2 C,,2 E,,2 B,,,2 | %12
 E,,2 B,,,2 E,,2 B,,,2 | E,,2 B,,,2 E,,2 B,,,2 | G,2 G,2 F,2 F,2 | B,,2 A,,2 G,,2 F,,2 | %16
 E,,2 B,,,2 E,,2 B,,,2 | F,,2 B,,,2 F,,2 B,,,2 | F,,2 B,,,2 F,,2 B,,,2 | E,,2 B,,,2 E,,2 z2 | %20
 E,2 E,>E, E,4 | E2 E>E E4 | =B,,2 B,,>B,, B,,4 | =B,2 B,>B, B,4 | B,,2 B,,2 B,,,2 B,,,2 | %25
 E,,4 z4 | A,,,2 G,,,2 F,,,2 G,,,2 | G,,,2 A,,,2 B,,,2 A,,,2 | G,,,6 D,,2 | E,,8 |] %30
V:6
 x8 | x8 | x8 | x8 | x8 | x8 | x8 | x8 | x8 | x8 | x8 | x8 | x8 | x8 | x8 | x8 | x8 | x8 | x8 | %19
 x8 | x8 | x8 | x8 | x8 | x8 | z2 D,2 C,2 B,,2 | x8 | x8 | x8 | x8 |] %30
V:7
 x8 | x8 | x8 | x8 | x8 | x8 | x8 | x8 | x8 | x8 | x8 | x8 | x8 | x8 | x8 | x8 | x8 | x8 | x8 | %19
 x8 | x8 | x8 | x8 | x8 | x8 | z2 D,,2 C,,2 B,,,2 | x8 | x8 | x8 | x8 |] %30

